X: 160125
T: Pat McMahon's 
T: Rathcroghan
T: Floating Crowbar
S: Jimmy Hogan/"Treoir"/"Crossroads Dance"
R: reel
M: 4/4
L: 1/8
K: D
dB | AD (3FED AD (3FED | AD (3FED A2 GF |\
EG (3GFG GAGF | EG G2 GABd |
AD (3FED AD (3FED | AD (3FED A2 FG |\
AGAB cded | cAGE D2 :|
FG | Adcd d2 cd | eaag efge | A2 GA AGFG |\
(3ABA GF EFGE |
Adcd d2 cd|eaag efge|a2 ge dfed|cAGE D2 :|
